X: 144
T: A Country Wedding
R: slip jig
M: 9/8
K: Dmajor
|:A|D2 D FDF AFA|D2 D BGB E2 F|D2 D FD/E/F AF/G/A|Bcd e>dc d2:|
|:e|f2 f fdB ecA|cde efd cBA|f2 f fdB ecA|B/c/dB edc d2:|
|:B|AFD A2 D FAd|BGE B2 E GB/c/d|AFD A2 D FAd|1 B>cd edc d2:|2 AGF EDC D2-||

